img/icon-user.svg

<svg width="16" height="19" viewBox="0 0 16 19" fill="none" xmlns="http://www.w3.org/2000/svg">
<path d="M4.66689 1.38179C3.7728 2.27588 3.28516 3.41379 3.28516 4.71429C3.28516 7.31528 5.39845 9.42857 7.99944 9.42857C9.21866 9.42857 10.4379 8.94093 11.3319 8.04683C12.226 7.15274 12.7137 6.01478 12.7137 4.71429C12.7137 2.11329 10.6004 0 7.99944 0C6.69895 0 5.56098 0.487696 4.66689 1.38179ZM11.4133 4.71429C11.4133 5.60838 11.0881 6.50247 10.4379 7.15271C9.78762 7.80296 8.89353 8.1281 7.99944 8.1281C6.12998 8.1281 4.58563 6.58375 4.58563 4.71429C4.58563 3.8202 4.91077 2.9261 5.56101 2.27586C6.21126 1.62561 7.10535 1.30048 7.99944 1.30048C9.8689 1.21919 11.4133 2.76354 11.4133 4.71429Z" fill="#FF0032"/>
<path d="M12.7909 9.25496C12.463 8.91501 12.0257 8.91501 11.6977 9.25496C11.6977 9.25496 7.98069 12.2011 4.48233 9.25496C4.15435 9.02833 3.71706 9.02833 3.38909 9.25496C3.27976 9.36827 0 12.3144 0 18.2068C0 18.4334 0.109337 18.66 0.218661 18.7734C0.327985 18.8867 0.546634 19 0.765282 19H15.0867C15.524 19 15.852 18.66 15.9613 18.2068C16.0707 17.9802 16.18 12.4278 12.7909 9.25496ZM1.74922 17.3003C1.96787 14.0142 3.38903 11.9745 4.1543 11.068C7.21537 13.1076 10.3858 12.2011 12.135 11.068C13.8842 13.1076 14.2122 15.9405 14.3215 17.3003H1.74922Z" fill="#FF0032"/>
</svg>

<svg width="16" height="19" fill="none" xmlns="http://www.w3.org/2000/svg"><path d="M4.667 1.382a4.604 4.604 0 0 0-1.382 3.332A4.718 4.718 0 0 0 8 9.43c1.22 0 2.439-.488 3.333-1.382a4.604 4.604 0 0 0 1.382-3.333A4.718 4.718 0 0 0 7.999 0C6.7 0 5.561.488 4.667 1.382zm6.746 3.332c0 .894-.325 1.788-.975 2.439-.65.65-1.544.975-2.439.975-1.869 0-3.413-1.544-3.413-3.414 0-.894.325-1.788.975-2.438.65-.65 1.544-.976 2.438-.976 1.87-.08 3.414 1.464 3.414 3.414z" fill="#FF0032"/><path d="M12.79 9.255c-.327-.34-.764-.34-1.092 0 0 0-3.717 2.946-7.216 0a.964.964 0 0 0-1.093 0C3.28 9.368 0 12.315 0 18.207c0 .226.11.453.219.566A.82.82 0 0 0 .765 19h14.322c.437 0 .765-.34.874-.793.11-.227.219-5.78-3.17-8.952zM1.75 17.3c.218-3.286 1.639-5.325 2.404-6.232 3.061 2.04 6.232 1.133 7.981 0 1.75 2.04 2.077 4.873 2.187 6.232H1.748z" fill="#FF0032"/></svg>
